X: 34810
T: Road To The Glen, The
R: reel
M: 4/4
K: Ddorian
|:DE|FdcB AEFA|G2dG BGdG|F2cF Acde|fedc ABcA|d^cde f2ag|fedc AFDE|FEFG AGFG|Add^c d2DE|
FdcB AEFA|G2dG BGdG|F2cF Acde|fedc ABcA|d^cde f2ag|fedc AFDE|FEFG (3ABA DE|FDE^C D2de|
f2ag fddf|ec (3cBc Gceg|f2ag fede|fdec Adde|fefg (3agf (3gfe|fedc AFDE|FEFG AGFG|Add^c d2de|
f2ag fddf|ec (3cBc Gceg|f2ag fede|fdec Adde|(3fgf df dfdf|(3efe ce cece|(3agf (3gfe dcAG|FDE^C D2:|

